icon/pk/light-house.svg

<svg width="48" height="48" fill="none" xmlns="http://www.w3.org/2000/svg"><path d="M6 44h36M17 20h14" stroke="#000" stroke-width="4" stroke-linecap="round" stroke-linejoin="round"/><path d="M19 20h10l3 24H16l3-24Z" fill="#2F88FF" stroke="#000" stroke-width="4" stroke-linejoin="round"/><path d="m19 9 2 11h6l2-11" stroke="#000" stroke-width="4" stroke-linecap="round" stroke-linejoin="round"/><path d="m32 12-3-3-5-5-5 5-3 3M37 7l3-3M11 7 8 4M37 19l3 3M11 19l-3 3M38 13h4M10 13H6" stroke="#000" stroke-width="4" stroke-linecap="round" stroke-linejoin="round"/><path d="M18 28h12M17 36h14" stroke="#fff" stroke-width="4" stroke-linecap="round" stroke-linejoin="round"/><path d="m29 20 3 24M19 20l-3 24" stroke="#000" stroke-width="4" stroke-linejoin="round"/></svg>

<svg viewBox="0 0 48 48" fill="none" xmlns="http://www.w3.org/2000/svg" height="1em" width="1em">
  <path d="M6 44H42" stroke="black" stroke-width="4" stroke-linecap="round" stroke-linejoin="round"/>
  <path d="M17 20H31" stroke="black" stroke-width="4" stroke-linecap="round" stroke-linejoin="round"/>
  <path d="M19 20H24H29L32 44H16L19 20Z" fill="#2F88FF" stroke="black" stroke-width="4" stroke-linejoin="round"/>
  <path d="M19 9L21 20H27L29 9" stroke="black" stroke-width="4" stroke-linecap="round" stroke-linejoin="round"/>
  <path d="M32 12L29 9L24 4L19 9L16 12" stroke="black" stroke-width="4" stroke-linecap="round" stroke-linejoin="round"/>
  <path d="M37 7L40 4" stroke="black" stroke-width="4" stroke-linecap="round" stroke-linejoin="round"/>
  <path d="M11 7L8 4" stroke="black" stroke-width="4" stroke-linecap="round" stroke-linejoin="round"/>
  <path d="M37 19L40 22" stroke="black" stroke-width="4" stroke-linecap="round" stroke-linejoin="round"/>
  <path d="M11 19L8 22" stroke="black" stroke-width="4" stroke-linecap="round" stroke-linejoin="round"/>
  <path d="M38 13H42" stroke="black" stroke-width="4" stroke-linecap="round" stroke-linejoin="round"/>
  <path d="M10 13H6" stroke="black" stroke-width="4" stroke-linecap="round" stroke-linejoin="round"/>
  <path d="M18 28L30 28" stroke="white" stroke-width="4" stroke-linecap="round" stroke-linejoin="round"/>
  <path d="M17 36H31" stroke="white" stroke-width="4" stroke-linecap="round" stroke-linejoin="round"/>
  <path d="M29 20L32 44" stroke="black" stroke-width="4" stroke-linejoin="round"/>
  <path d="M19 20L16 44" stroke="black" stroke-width="4" stroke-linejoin="round"/>
</svg>
